X: 081731
T: Humors of Ederney
T: Pl\'ear\'aca Eadarna\'i
C: W.Jones
S: B.Breathnach:"Ceol Rince na hEireann" IV/118 
Z: B.Black
L: 1/8
M: 4/4
R: reel
K: A
EG|A2 cA EA,CE|A2 ce aecA|dfBd ceAc|(3dcB (3cBA BEGB|
AecA EA,CE|A2 ce aecA|dfBd ceAc|BEGB A2 :|
(3efg|a2 ag agfe|^defg aecA|dfBd ceAc|(3dcB ba gefg|
ac'ba gabc'|d'c'bg aecA|dfBd ceAc|BEGB A2 :|
